X: 3
T: The Flooded Road To Glenties
R: reel
M: 4/4
L: 1/8
K: Bdor
FB B/A/B Gafe | cfec BAFE | FB B/A/B Ga a/g/a | gfeg f2 fe |fgfe cfec | B/c/B cB cefg | aff2 egfe |1 cfec B2BA :|2 cfec B2Bc |:dB B/A/B aBgB | fB B/A/B cBAc | dB B/A/B ABde | gfeg f2 fg |gffe fgfe | cfec BAFE | FB B/A/B ABce | afec B2Bc :|


Tune 3440	Setting 26604

